src/epub/images/titlepage.svg

<?xml version="1.0" encoding="utf-8"?>
<svg xmlns="http://www.w3.org/2000/svg" xmlns:svg="http://www.w3.org/2000/svg" version="1.1" viewBox="0 0 1400 440">
	<title>The titlepage for the Standard Ebooks edition of The Last of the Mohicans, by James Fenimore Cooper</title>
	<g>
		<path d="m 372.11184,68.245613 18.33918,0 0,61.754387 17.59064,0 0,-61.754387 18.33918,0 0,-15.438597 -54.269,0 0,15.438597 z"/>
		<path d="m 455.30628,99.029239 24.88889,0 0,30.970761 17.59064,0 0,-77.192984 -17.59064,0 0,30.783626 -24.88889,0 0,-30.783626 -17.59064,0 0,77.192984 17.59064,0 0,-30.970761 z"/>
		<path d="m 558.15132,52.807016 -44.16375,0 0,77.192984 44.16375,0 0,-15.4386 -26.5731,0 0,-15.532161 25.45029,0 0,-15.438597 -25.45029,0 0,-15.345029 26.5731,0 0,-15.438597 z"/>
		<path d="m 621.43933,52.807016 -17.59064,0 0,77.192984 44.16374,0 0,-15.4386 -26.5731,0 0,-61.754384 z"/>
		<path d="m 702.32969,52.807016 -16.2807,0 L 654.89109,130 l 18.90059,0 5.7076,-15.4386 29.38012,0 5.7076,15.4386 18.90058,0 -31.15789,-77.192984 z m 0.5614,46.31579 -17.40351,0 8.60819,-22.45614 0.18713,0 8.60819,22.45614 z"/>
		<path d="m 768.02413,51.403507 c -12.44444,0 -25.16959,9.169591 -25.16959,23.578948 0,8.046784 5.4269,15.251462 14.69006,19.836258 9.16959,4.584795 17.40351,7.111107 17.40351,12.725147 0,7.20468 -7.29824,7.57895 -11.1345,7.57895 -8.60819,0 -18.90059,-8.70176 -18.90059,-8.70176 l -8.79532,14.78363 c 0,0 10.94737,10.19883 29.00585,10.19883 15.06433,0 29.09942,-6.45614 29.09942,-24.88889 0,-10.105264 -9.4503,-17.40351 -18.05848,-21.052632 -8.79533,-3.742691 -16.09357,-6.83041 -16.09357,-11.134504 0,-4.210526 3.18128,-6.923976 9.16959,-6.923976 7.95322,0 15.62573,5.333333 15.62573,5.333333 l 7.11111,-14.035088 c 0,0 -9.91813,-7.298246 -23.95322,-7.298246 z"/>
		<path d="m 798.01098,68.245613 18.33918,0 0,61.754387 17.59064,0 0,-61.754387 18.33918,0 0,-15.438597 -54.269,0 0,15.438597 z"/>
		<path d="m 890.73757,91.356724 c 0,22.549706 16.09357,40.046786 38.92398,40.046786 22.17544,0 38.83041,-17.49708 38.83041,-40.046786 0,-22.549708 -17.40351,-39.953217 -38.83041,-39.953217 -21.23976,0 -38.92398,17.403509 -38.92398,39.953217 z m 18.99416,0 c 0,-11.508772 6.36257,-23.017544 19.92982,-23.017544 13.66082,0 19.83626,11.508772 19.83626,23.017544 0,11.508776 -5.80117,23.017546 -19.83626,23.017546 -14.40936,0 -19.92982,-11.50877 -19.92982,-23.017546 z"/>
		<path d="m 1025.8852,52.807016 -44.63156,0 0,77.192984 17.59064,0 0,-30.970761 24.98242,0 0,-15.438597 -24.98242,0 0,-15.345029 27.04092,0 0,-15.438597 z"/>
	</g>
	<g>
		<path d="m 294.86768,168.24561 18.33919,0 0,61.75439 17.59064,0 0,-61.75439 18.33918,0 0,-15.43859 -54.26901,0 0,15.43859 z"/>
		<path d="m 378.06213,199.02924 24.88889,0 0,30.97076 17.59064,0 0,-77.19298 -17.59064,0 0,30.78362 -24.88889,0 0,-30.78362 -17.59065,0 0,77.19298 17.59065,0 0,-30.97076 z"/>
		<path d="m 480.90716,152.80702 -44.16374,0 0,77.19298 44.16374,0 0,-15.4386 -26.5731,0 0,-15.53216 25.4503,0 0,-15.4386 -25.4503,0 0,-15.34503 26.5731,0 0,-15.43859 z"/>
		<path d="m 590.4174,230 17.59064,0 -6.92397,-77.19298 -18.71345,0 -17.12281,44.53801 -17.12281,-44.53801 -18.71345,0 -6.92398,77.19298 17.59065,0 3.64912,-45.75439 0.46784,0 15.81286,45.28655 10.47954,0 15.81286,-45.28655 0.46784,0 L 590.4174,230 Z"/>
		<path d="m 616.59285,191.35672 c 0,22.54971 16.09357,40.04679 38.92397,40.04679 22.17544,0 38.83041,-17.49708 38.83041,-40.04679 0,-22.5497 -17.4035,-39.95321 -38.83041,-39.95321 -21.23976,0 -38.92397,17.40351 -38.92397,39.95321 z m 18.99415,0 c 0,-11.50877 6.36257,-23.01754 19.92982,-23.01754 13.66082,0 19.83626,11.50877 19.83626,23.01754 0,11.50878 -5.80117,23.01755 -19.83626,23.01755 -14.40935,0 -19.92982,-11.50877 -19.92982,-23.01755 z"/>
		<path d="m 724.69956,199.02924 24.88889,0 0,30.97076 17.59064,0 0,-77.19298 -17.59064,0 0,30.78362 -24.88889,0 0,-30.78362 -17.59065,0 0,77.19298 17.59065,0 0,-30.97076 z"/>
		<path d="m 800.9715,152.80702 -17.59064,0 0,77.19298 17.59064,0 0,-77.19298 z"/>
		<path d="m 855.40717,214.09357 c -17.68421,0 -25.4503,-12.35088 -25.4503,-22.73685 0,-10.29239 7.76609,-22.64327 25.4503,-22.64327 8.98245,0 15.15789,4.77193 15.15789,4.77193 l 7.48538,-14.97076 c 0,0 -8.60819,-7.11111 -25.35672,-7.11111 -21.89474,0 -41.82457,17.96491 -41.82457,40.14035 0,22.08187 20.0234,39.85965 41.82457,39.85965 16.74853,0 25.35672,-7.11111 25.35672,-7.11111 l -7.48538,-14.97076 c 0,0 -6.17544,4.77193 -15.15789,4.77193 z"/>
		<path d="m 929.07678,152.80702 -16.28071,0 L 881.63818,230 l 18.90058,0 5.70761,-15.4386 29.38011,0 5.70761,15.4386 18.90058,0 -31.15789,-77.19298 z m 0.5614,46.31579 -17.40351,0 8.60819,-22.45614 0.18713,0 8.60819,22.45614 z"/>
		<path d="m 985.74491,182.09357 0.18713,0 30.69006,47.90643 17.5906,0 0,-77.19298 -17.5906,0 0,47.90643 -0.1871,0 -30.69009,-47.90643 -17.59065,0 0,77.19298 17.59065,0 0,-47.90643 z"/>
		<path d="m 1077.0739,151.40351 c -12.4445,0 -25.1696,9.16959 -25.1696,23.57895 0,8.04678 5.4269,15.25146 14.69,19.83625 9.1696,4.5848 17.4035,7.11111 17.4035,12.72515 0,7.20468 -7.2982,7.57895 -11.1345,7.57895 -8.6081,0 -18.9005,-8.70176 -18.9005,-8.70176 l -8.7954,14.78363 c 0,0 10.9474,10.19883 29.0059,10.19883 15.0643,0 29.0994,-6.45614 29.0994,-24.88889 0,-10.10526 -9.4503,-17.40351 -18.0585,-21.05263 -8.7953,-3.74269 -16.0936,-6.83041 -16.0936,-11.13451 0,-4.21052 3.1813,-6.92397 9.1696,-6.92397 7.9533,0 15.6258,5.33333 15.6258,5.33333 l 7.1111,-14.03509 c 0,0 -9.9181,-7.29824 -23.9532,-7.29824 z"/>
	</g>
	<g>
		<path d="m 193.93202,332.10526 -13.19298,0 0,38.17544 c 0,5.82456 -2.87719,8.14035 -6.66667,8.14035 -3.36842,0 -7.50877,-3.92982 -7.50877,-3.92982 l -4.21053,11.01754 c 0,0 5.26316,5.54386 13.54386,5.54386 11.57895,0 18.03509,-6.03509 18.03509,-17.40351 l 0,-41.54386 z"/>
		<path d="m 236.03729,332.10526 -12.21053,0 L 200.45834,390 l 14.17544,0 4.2807,-11.57895 22.03509,0 4.2807,11.57895 14.17544,0 -23.36842,-57.89474 z m 0.42105,34.73685 -13.05263,0 6.45614,-16.84211 0.14035,0 6.45614,16.84211 z"/>
		<path d="m 314.45505,390 13.19298,0 -5.19298,-57.89474 -14.03509,0 -12.8421,33.40351 -12.84211,-33.40351 -14.03509,0 -5.19298,57.89474 13.19298,0 2.73685,-34.31579 0.35087,0 11.85965,33.96491 7.85965,0 11.85965,-33.96491 0.35088,0 L 314.45505,390 Z"/>
		<path d="m 371.05592,332.10526 -33.1228,0 0,57.89474 33.1228,0 0,-11.57895 -19.92982,0 0,-11.64912 19.08772,0 0,-11.57895 -19.08772,0 0,-11.50877 19.92982,0 0,-11.57895 z"/>
		<path d="m 404.97368,331.05263 c -9.33333,0 -18.87719,6.8772 -18.87719,17.68421 0,6.03509 4.07017,11.4386 11.01754,14.8772 6.87719,3.43859 13.05263,5.33333 13.05263,9.54385 0,5.40351 -5.47368,5.68422 -8.35088,5.68422 -6.45614,0 -14.17543,-6.52632 -14.17543,-6.52632 l -6.5965,11.08772 c 0,0 8.21053,7.64912 21.75439,7.64912 11.29825,0 21.82456,-4.8421 21.82456,-18.66666 0,-7.57895 -7.08772,-13.05264 -13.54386,-15.78948 -6.59649,-2.80702 -12.07017,-5.12281 -12.07017,-8.35088 0,-3.15789 2.38596,-5.19298 6.87719,-5.19298 5.96491,0 11.7193,4 11.7193,4 l 5.33333,-10.52631 c 0,0 -7.4386,-5.47369 -17.96491,-5.47369 z"/>
		<path d="m 493.45177,332.10526 -33.47369,0 0,57.89474 13.19299,0 0,-23.22807 18.73684,0 0,-11.57895 -18.73684,0 0,-11.50877 20.2807,0 0,-11.57895 z"/>
		<path d="m 537.84869,332.10526 -33.1228,0 0,57.89474 33.1228,0 0,-11.57895 -19.92982,0 0,-11.64912 19.08772,0 0,-11.57895 -19.08772,0 0,-11.50877 19.92982,0 0,-11.57895 z"/>
		<path d="m 563.62611,354.07018 0.14035,0 23.01755,35.92982 13.19298,0 0,-57.89474 -13.19298,0 0,35.92983 -0.14035,0 -23.01755,-35.92983 -13.19298,0 0,57.89474 13.19298,0 0,-35.92982 z"/>
		<path d="m 626.60307,332.10526 -13.19298,0 0,57.89474 13.19298,0 0,-57.89474 z"/>
		<path d="m 687.92544,390 13.19298,0 -5.19298,-57.89474 -14.03509,0 -12.8421,33.40351 -12.84211,-33.40351 -14.03509,0 -5.19298,57.89474 13.19298,0 2.73685,-34.31579 0.35087,0 11.85965,33.96491 7.85965,0 11.85965,-33.96491 0.35088,0 L 687.92544,390 Z"/>
		<path d="m 708.80704,361.01754 c 0,16.91228 12.07017,30.03509 29.19298,30.03509 16.63158,0 29.12281,-13.12281 29.12281,-30.03509 0,-16.91228 -13.05263,-29.96491 -29.12281,-29.96491 -15.92982,0 -29.19298,13.05263 -29.19298,29.96491 z m 14.24561,0 c 0,-8.63157 4.77193,-17.26315 14.94737,-17.26315 10.24561,0 14.87719,8.63158 14.87719,17.26315 0,8.63158 -4.35087,17.26316 -14.87719,17.26316 -10.80702,0 -14.94737,-8.63158 -14.94737,-17.26316 z"/>
		<path d="m 777.94406,332.10526 0,57.89474 13.19298,0 0,-22.87719 17.68421,22.87719 16.77193,0 -19.92983,-23.92982 C 812.75107,363.82456 817.523,358 817.523,349.29825 c 0,-11.36842 -8.14035,-17.19299 -18.87719,-17.19299 l -20.70175,0 z m 13.19298,25.68421 0,-15.15789 1.54386,0 c 4.98245,0 10.94737,0.35088 10.94737,7.57895 0,7.22807 -5.96492,7.57894 -10.94737,7.57894 l -1.54386,0 z"/>
		<path d="m 866.36844,332.10526 -33.12281,0 0,57.89474 33.12281,0 0,-11.57895 -19.92983,0 0,-11.64912 19.08772,0 0,-11.57895 -19.08772,0 0,-11.50877 19.92983,0 0,-11.57895 z"/>
		<path d="m 931.75547,378.07018 c -13.26316,0 -19.08772,-9.26316 -19.08772,-17.05264 0,-7.71929 5.82456,-16.98245 19.08772,-16.98245 6.73684,0 11.36842,3.57895 11.36842,3.57895 l 5.61403,-11.22807 c 0,0 -6.45614,-5.33334 -19.01754,-5.33334 -16.42105,0 -31.36842,13.47369 -31.36842,30.10527 0,16.5614 15.01754,29.89473 31.36842,29.89473 12.5614,0 19.01754,-5.33333 19.01754,-5.33333 l -5.61403,-11.22807 c 0,0 -4.63158,3.57895 -11.36842,3.57895 z"/>
		<path d="m 956.25766,361.01754 c 0,16.91228 12.07018,30.03509 29.19298,30.03509 16.63156,0 29.12276,-13.12281 29.12276,-30.03509 0,-16.91228 -13.0526,-29.96491 -29.12276,-29.96491 -15.92982,0 -29.19298,13.05263 -29.19298,29.96491 z m 14.24561,0 c 0,-8.63157 4.77193,-17.26315 14.94737,-17.26315 10.24562,0 14.87716,8.63158 14.87716,17.26315 0,8.63158 -4.35084,17.26316 -14.87716,17.26316 -10.80701,0 -14.94737,-8.63158 -14.94737,-17.26316 z"/>
		<path d="m 1022.7982,361.01754 c 0,16.91228 12.0702,30.03509 29.193,30.03509 16.6316,0 29.1228,-13.12281 29.1228,-30.03509 0,-16.91228 -13.0526,-29.96491 -29.1228,-29.96491 -15.9298,0 -29.193,13.05263 -29.193,29.96491 z m 14.2457,0 c 0,-8.63157 4.7719,-17.26315 14.9473,-17.26315 10.2456,0 14.8772,8.63158 14.8772,17.26315 0,8.63158 -4.3509,17.26316 -14.8772,17.26316 -10.807,0 -14.9473,-8.63158 -14.9473,-17.26316 z"/>
		<path d="m 1091.9353,332.10526 0,57.89474 13.193,0 0,-21.47368 7.9298,0 c 11.2983,0 19.7895,-6.66667 19.7895,-18.5965 0,-11.99999 -8.4912,-17.82456 -19.7895,-17.82456 l -21.1228,0 z m 13.193,25.89474 0,-15.36842 3.7193,0 c 5.193,0 10.1053,1.75439 10.1053,7.7193 0,5.89473 -4.9123,7.64912 -10.1053,7.64912 l -3.7193,0 z"/>
		<path d="m 1176.7961,332.10526 -33.1229,0 0,57.89474 33.1229,0 0,-11.57895 -19.9299,0 0,-11.64912 19.0877,0 0,-11.57895 -19.0877,0 0,-11.50877 19.9299,0 0,-11.57895 z"/>
		<path d="m 1189.3805,332.10526 0,57.89474 13.1929,0 0,-22.87719 17.6843,22.87719 16.7719,0 -19.9298,-23.92982 c 7.0877,-2.24562 11.8596,-8.07018 11.8596,-16.77193 0,-11.36842 -8.1403,-17.19299 -18.8772,-17.19299 l -20.7017,0 z m 13.1929,25.68421 0,-15.15789 1.5439,0 c 4.9825,0 10.9474,0.35088 10.9474,7.57895 0,7.22807 -5.9649,7.57894 -10.9474,7.57894 l -1.5439,0 z"/>
	</g>
</svg>

<?xml version="1.0" encoding="utf-8"?>
<svg xmlns="http://www.w3.org/2000/svg" xmlns:svg="http://www.w3.org/2000/svg" version="1.1" viewBox="0 0 1400 440">
	<title>The titlepage for the Standard Ebooks edition of The Last of the Mohicans, by James Fenimore Cooper</title>
	<g aria-label="THE LAST OF">
		<path d="m 372.11184,68.245613 h 18.33918 V 130 h 17.59064 V 68.245613 h 18.33918 V 52.807016 h -54.269 z"/>
		<path d="m 455.30628,99.029239 h 24.88889 V 130 h 17.59064 V 52.807016 H 480.19517 V 83.590642 H 455.30628 V 52.807016 H 437.71564 V 130 h 17.59064 z"/>
		<path d="M 558.15132,52.807016 H 513.98757 V 130 h 44.16375 v -15.4386 h -26.5731 V 99.029239 h 25.45029 V 83.590642 H 531.57822 V 68.245613 h 26.5731 z"/>
		<path d="M 621.43933,52.807016 H 603.84869 V 130 h 44.16374 v -15.4386 h -26.5731 z"/>
		<path d="m 702.32969,52.807016 h -16.2807 L 654.89109,130 h 18.90059 l 5.7076,-15.4386 H 708.8794 L 714.587,130 h 18.90058 z m 0.5614,46.31579 h -17.40351 l 8.60819,-22.45614 h 0.18713 z"/>
		<path d="m 768.02413,51.403507 c -12.44444,0 -25.16959,9.169591 -25.16959,23.578948 0,8.046784 5.4269,15.251462 14.69006,19.836258 9.16959,4.584795 17.40351,7.111107 17.40351,12.725147 0,7.20468 -7.29824,7.57895 -11.1345,7.57895 -8.60819,0 -18.90059,-8.70176 -18.90059,-8.70176 l -8.79532,14.78363 c 0,0 10.94737,10.19883 29.00585,10.19883 15.06433,0 29.09942,-6.45614 29.09942,-24.88889 0,-10.105264 -9.4503,-17.40351 -18.05848,-21.052632 -8.79533,-3.742691 -16.09357,-6.83041 -16.09357,-11.134504 0,-4.210526 3.18128,-6.923976 9.16959,-6.923976 7.95322,0 15.62573,5.333333 15.62573,5.333333 l 7.11111,-14.035088 c 0,0 -9.91813,-7.298246 -23.95322,-7.298246 z"/>
		<path d="m 798.01098,68.245613 h 18.33918 V 130 H 833.9408 V 68.245613 h 18.33918 V 52.807016 h -54.269 z"/>
		<path d="m 890.73757,91.356724 c 0,22.549706 16.09357,40.046786 38.92398,40.046786 22.17544,0 38.83041,-17.49708 38.83041,-40.046786 0,-22.549708 -17.40351,-39.953217 -38.83041,-39.953217 -21.23976,0 -38.92398,17.403509 -38.92398,39.953217 z m 18.99416,0 c 0,-11.508772 6.36257,-23.017544 19.92982,-23.017544 13.66082,0 19.83626,11.508772 19.83626,23.017544 0,11.508776 -5.80117,23.017546 -19.83626,23.017546 -14.40936,0 -19.92982,-11.50877 -19.92982,-23.017546 z"/>
		<path d="M 1025.8852,52.807016 H 981.25364 V 130 h 17.59064 V 99.029239 h 24.98242 V 83.590642 H 998.84428 V 68.245613 h 27.04092 z"/>
	</g>
	<g aria-label="THE MOHICANS">
		<path d="m 294.86768,168.24561 h 18.33919 V 230 h 17.59064 v -61.75439 h 18.33918 v -15.43859 h -54.26901 z"/>
		<path d="m 378.06213,199.02924 h 24.88889 V 230 h 17.59064 v -77.19298 h -17.59064 v 30.78362 H 378.06213 V 152.80702 H 360.47148 V 230 h 17.59065 z"/>
		<path d="M 480.90716,152.80702 H 436.74342 V 230 h 44.16374 v -15.4386 h -26.5731 v -15.53216 h 25.4503 v -15.4386 h -25.4503 v -15.34503 h 26.5731 z"/>
		<path d="m 590.4174,230 h 17.59064 l -6.92397,-77.19298 H 582.37062 L 565.24781,197.34503 548.125,152.80702 H 529.41155 L 522.48757,230 h 17.59065 l 3.64912,-45.75439 h 0.46784 l 15.81286,45.28655 h 10.47954 l 15.81286,-45.28655 h 0.46784 z"/>
		<path d="m 616.59285,191.35672 c 0,22.54971 16.09357,40.04679 38.92397,40.04679 22.17544,0 38.83041,-17.49708 38.83041,-40.04679 0,-22.5497 -17.4035,-39.95321 -38.83041,-39.95321 -21.23976,0 -38.92397,17.40351 -38.92397,39.95321 z m 18.99415,0 c 0,-11.50877 6.36257,-23.01754 19.92982,-23.01754 13.66082,0 19.83626,11.50877 19.83626,23.01754 0,11.50878 -5.80117,23.01755 -19.83626,23.01755 -14.40935,0 -19.92982,-11.50877 -19.92982,-23.01755 z"/>
		<path d="m 724.69956,199.02924 h 24.88889 V 230 h 17.59064 v -77.19298 h -17.59064 v 30.78362 H 724.69956 V 152.80702 H 707.10891 V 230 h 17.59065 z"/>
		<path d="M 800.9715,152.80702 H 783.38086 V 230 h 17.59064 z"/>
		<path d="m 855.40717,214.09357 c -17.68421,0 -25.4503,-12.35088 -25.4503,-22.73685 0,-10.29239 7.76609,-22.64327 25.4503,-22.64327 8.98245,0 15.15789,4.77193 15.15789,4.77193 l 7.48538,-14.97076 c 0,0 -8.60819,-7.11111 -25.35672,-7.11111 -21.89474,0 -41.82457,17.96491 -41.82457,40.14035 0,22.08187 20.0234,39.85965 41.82457,39.85965 16.74853,0 25.35672,-7.11111 25.35672,-7.11111 l -7.48538,-14.97076 c 0,0 -6.17544,4.77193 -15.15789,4.77193 z"/>
		<path d="M 929.07678,152.80702 H 912.79607 L 881.63818,230 h 18.90058 l 5.70761,-15.4386 h 29.38011 L 941.33409,230 h 18.90058 z m 0.5614,46.31579 h -17.40351 l 8.60819,-22.45614 h 0.18713 z"/>
		<path d="m 985.74491,182.09357 h 0.18713 L 1016.6221,230 h 17.5906 v -77.19298 h -17.5906 v 47.90643 h -0.1871 L 985.74491,152.80702 H 968.15426 V 230 h 17.59065 z"/>
		<path d="m 1077.0739,151.40351 c -12.4445,0 -25.1696,9.16959 -25.1696,23.57895 0,8.04678 5.4269,15.25146 14.69,19.83625 9.1696,4.5848 17.4035,7.11111 17.4035,12.72515 0,7.20468 -7.2982,7.57895 -11.1345,7.57895 -8.6081,0 -18.9005,-8.70176 -18.9005,-8.70176 l -8.7954,14.78363 c 0,0 10.9474,10.19883 29.0059,10.19883 15.0643,0 29.0994,-6.45614 29.0994,-24.88889 0,-10.10526 -9.4503,-17.40351 -18.0585,-21.05263 -8.7953,-3.74269 -16.0936,-6.83041 -16.0936,-11.13451 0,-4.21052 3.1813,-6.92397 9.1696,-6.92397 7.9533,0 15.6258,5.33333 15.6258,5.33333 l 7.1111,-14.03509 c 0,0 -9.9181,-7.29824 -23.9532,-7.29824 z"/>
	</g>
	<g aria-label="JAMES FENIMORE COOPER">
		<path d="m 193.93202,332.10526 h -13.19298 v 38.17544 c 0,5.82456 -2.87719,8.14035 -6.66667,8.14035 -3.36842,0 -7.50877,-3.92982 -7.50877,-3.92982 l -4.21053,11.01754 c 0,0 5.26316,5.54386 13.54386,5.54386 11.57895,0 18.03509,-6.03509 18.03509,-17.40351 z"/>
		<path d="M 236.03729,332.10526 H 223.82676 L 200.45834,390 h 14.17544 l 4.2807,-11.57895 h 22.03509 L 245.23027,390 h 14.17544 z m 0.42105,34.73685 H 223.40571 L 229.86185,350 h 0.14035 z"/>
		<path d="m 314.45505,390 h 13.19298 l -5.19298,-57.89474 h -14.03509 l -12.8421,33.40351 -12.84211,-33.40351 H 268.70066 L 263.50768,390 h 13.19298 l 2.73685,-34.31579 h 0.35087 l 11.85965,33.96491 h 7.85965 l 11.85965,-33.96491 h 0.35088 z"/>
		<path d="m 371.05592,332.10526 h -33.1228 V 390 h 33.1228 V 378.42105 H 351.1261 v -11.64912 h 19.08772 V 355.19298 H 351.1261 v -11.50877 h 19.92982 z"/>
		<path d="m 404.97368,331.05263 c -9.33333,0 -18.87719,6.8772 -18.87719,17.68421 0,6.03509 4.07017,11.4386 11.01754,14.8772 6.87719,3.43859 13.05263,5.33333 13.05263,9.54385 0,5.40351 -5.47368,5.68422 -8.35088,5.68422 -6.45614,0 -14.17543,-6.52632 -14.17543,-6.52632 l -6.5965,11.08772 c 0,0 8.21053,7.64912 21.75439,7.64912 11.29825,0 21.82456,-4.8421 21.82456,-18.66666 0,-7.57895 -7.08772,-13.05264 -13.54386,-15.78948 -6.59649,-2.80702 -12.07017,-5.12281 -12.07017,-8.35088 0,-3.15789 2.38596,-5.19298 6.87719,-5.19298 5.96491,0 11.7193,4 11.7193,4 l 5.33333,-10.52631 c 0,0 -7.4386,-5.47369 -17.96491,-5.47369 z"/>
		<path d="M 493.45177,332.10526 H 459.97808 V 390 h 13.19299 v -23.22807 h 18.73684 v -11.57895 h -18.73684 v -11.50877 h 20.2807 z"/>
		<path d="m 537.84869,332.10526 h -33.1228 V 390 h 33.1228 v -11.57895 h -19.92982 v -11.64912 h 19.08772 v -11.57895 h -19.08772 v -11.50877 h 19.92982 z"/>
		<path d="m 563.62611,354.07018 h 0.14035 L 586.78401,390 h 13.19298 v -57.89474 h -13.19298 v 35.92983 h -0.14035 L 563.62611,332.10526 H 550.43313 V 390 h 13.19298 z"/>
		<path d="M 626.60307,332.10526 H 613.41009 V 390 h 13.19298 z"/>
		<path d="m 687.92544,390 h 13.19298 l -5.19298,-57.89474 h -14.03509 l -12.8421,33.40351 -12.84211,-33.40351 H 642.17105 L 636.97807,390 h 13.19298 l 2.73685,-34.31579 h 0.35087 l 11.85965,33.96491 h 7.85965 l 11.85965,-33.96491 h 0.35088 z"/>
		<path d="m 708.80704,361.01754 c 0,16.91228 12.07017,30.03509 29.19298,30.03509 16.63158,0 29.12281,-13.12281 29.12281,-30.03509 0,-16.91228 -13.05263,-29.96491 -29.12281,-29.96491 -15.92982,0 -29.19298,13.05263 -29.19298,29.96491 z m 14.24561,0 c 0,-8.63157 4.77193,-17.26315 14.94737,-17.26315 10.24561,0 14.87719,8.63158 14.87719,17.26315 0,8.63158 -4.35087,17.26316 -14.87719,17.26316 -10.80702,0 -14.94737,-8.63158 -14.94737,-17.26316 z"/>
		<path d="M 777.94406,332.10526 V 390 h 13.19298 V 367.12281 L 808.82125,390 h 16.77193 L 805.66335,366.07018 C 812.75107,363.82456 817.523,358 817.523,349.29825 c 0,-11.36842 -8.14035,-17.19299 -18.87719,-17.19299 z m 13.19298,25.68421 v -15.15789 h 1.54386 c 4.98245,0 10.94737,0.35088 10.94737,7.57895 0,7.22807 -5.96492,7.57894 -10.94737,7.57894 z"/>
		<path d="M 866.36844,332.10526 H 833.24563 V 390 h 33.12281 v -11.57895 h -19.92983 v -11.64912 h 19.08772 v -11.57895 h -19.08772 v -11.50877 h 19.92983 z"/>
		<path d="m 931.75547,378.07018 c -13.26316,0 -19.08772,-9.26316 -19.08772,-17.05264 0,-7.71929 5.82456,-16.98245 19.08772,-16.98245 6.73684,0 11.36842,3.57895 11.36842,3.57895 l 5.61403,-11.22807 c 0,0 -6.45614,-5.33334 -19.01754,-5.33334 -16.42105,0 -31.36842,13.47369 -31.36842,30.10527 0,16.5614 15.01754,29.89473 31.36842,29.89473 12.5614,0 19.01754,-5.33333 19.01754,-5.33333 l -5.61403,-11.22807 c 0,0 -4.63158,3.57895 -11.36842,3.57895 z"/>
		<path d="m 956.25766,361.01754 c 0,16.91228 12.07018,30.03509 29.19298,30.03509 16.63156,0 29.12276,-13.12281 29.12276,-30.03509 0,-16.91228 -13.0526,-29.96491 -29.12276,-29.96491 -15.92982,0 -29.19298,13.05263 -29.19298,29.96491 z m 14.24561,0 c 0,-8.63157 4.77193,-17.26315 14.94737,-17.26315 10.24562,0 14.87716,8.63158 14.87716,17.26315 0,8.63158 -4.35084,17.26316 -14.87716,17.26316 -10.80701,0 -14.94737,-8.63158 -14.94737,-17.26316 z"/>
		<path d="m 1022.7982,361.01754 c 0,16.91228 12.0702,30.03509 29.193,30.03509 16.6316,0 29.1228,-13.12281 29.1228,-30.03509 0,-16.91228 -13.0526,-29.96491 -29.1228,-29.96491 -15.9298,0 -29.193,13.05263 -29.193,29.96491 z m 14.2457,0 c 0,-8.63157 4.7719,-17.26315 14.9473,-17.26315 10.2456,0 14.8772,8.63158 14.8772,17.26315 0,8.63158 -4.3509,17.26316 -14.8772,17.26316 -10.807,0 -14.9473,-8.63158 -14.9473,-17.26316 z"/>
		<path d="M 1091.9353,332.10526 V 390 h 13.193 v -21.47368 h 7.9298 c 11.2983,0 19.7895,-6.66667 19.7895,-18.5965 0,-11.99999 -8.4912,-17.82456 -19.7895,-17.82456 z M 1105.1283,358 v -15.36842 h 3.7193 c 5.193,0 10.1053,1.75439 10.1053,7.7193 0,5.89473 -4.9123,7.64912 -10.1053,7.64912 z"/>
		<path d="m 1176.7961,332.10526 h -33.1229 V 390 h 33.1229 v -11.57895 h -19.9299 v -11.64912 h 19.0877 v -11.57895 h -19.0877 v -11.50877 h 19.9299 z"/>
		<path d="M 1189.3805,332.10526 V 390 h 13.1929 V 367.12281 L 1220.2577,390 h 16.7719 l -19.9298,-23.92982 c 7.0877,-2.24562 11.8596,-8.07018 11.8596,-16.77193 0,-11.36842 -8.1403,-17.19299 -18.8772,-17.19299 z m 13.1929,25.68421 v -15.15789 h 1.5439 c 4.9825,0 10.9474,0.35088 10.9474,7.57895 0,7.22807 -5.9649,7.57894 -10.9474,7.57894 z"/>
	</g>
</svg>
